X:470
T:Soldiers Return,The. RH.470
T:Mill,Mill O,aka. RH.470
T:Blue-eyed Stranger,aka. RH.470
R:air
S:Rev.R.Harrison’s MS,c1815,Cumbria
N:I dotted the last notes of A & B musics, and added
N:the leading rest. PJH.
O:England
A:Temple Sowerby,Cumbria
Z:vmp.Simon Wilson. Review PJH, 2008.
M:C
L:1/8
Q:2/4=75
K:D
z|d>e A>B A3d|B>A Bd e2de|f2A2 gfed|B3cd2d>e|!
f2A>B A3d|B>A Bd e2d>e|f2AA g>fed|B3c d3:|!
|:A|defg a3a|bagf e3A|defg a>b ag|f3g a2zA|!
(de)(fg) a2ga|bagf e2d>e|f2A2 g>f ed|B3c d3:|

